packages/sources/icons/src/vitamix/volume-down-line.svg

<svg width="16" height="16" viewBox="0 0 16 16" xmlns="http://www.w3.org/2000/svg"><path fill-rule="evenodd" clip-rule="evenodd" d="M5.92596 10.6666H3.33329C2.9651 10.6666 2.66663 10.3682 2.66663 9.99998V5.99998C2.66663 5.63179 2.9651 5.33331 3.33329 5.33331H5.92596L9.45529 2.44531C9.55497 2.36359 9.69283 2.34666 9.80932 2.40184C9.92581 2.45702 10 2.57441 9.99996 2.70331V13.2966C10 13.4255 9.92581 13.5429 9.80932 13.5981C9.69283 13.6533 9.55497 13.6364 9.45529 13.5546L5.92596 10.6666ZM8.66663 4.81333L6.40196 6.66666H3.99996V9.33333H6.40196L8.66663 11.1867V4.81333ZM11.6273 10.1126L12.5753 11.0606C13.4466 10.3266 13.9999 9.22796 13.9999 7.99996C14.001 6.72859 13.3967 5.53266 12.3726 4.7793L11.4133 5.73863C12.1666 6.20996 12.6666 7.04663 12.6666 7.99996C12.6673 8.82745 12.2832 9.60822 11.6273 10.1126Z"/></svg>

<svg width="16" height="16" xmlns="http://www.w3.org/2000/svg"><path fill-rule="evenodd" clip-rule="evenodd" d="M5.926 10.667H3.333A.667.667 0 0 1 2.667 10V6c0-.368.298-.667.666-.667h2.593l3.53-2.888a.333.333 0 0 1 .544.258v10.594a.333.333 0 0 1-.545.258l-3.529-2.888Zm2.74-5.854L6.403 6.667H4v2.666h2.402l2.265 1.854V4.813Zm2.961 5.3.948.948A3.991 3.991 0 0 0 14 8a3.994 3.994 0 0 0-1.627-3.22l-.96.959A2.663 2.663 0 0 1 12.667 8c0 .827-.384 1.608-1.04 2.113Z"/></svg>
